!!!OTL: Freundschaft, Liebe, Frohsinn.
!!!OTL-incipit: AUF MUNTRE BRUEDER
!!!COM: W. Tschirch
!!!ARE: Europa, Mitteleuropa, Deutschland
!!!SCT: F0813
!!!TXL: @@DE
!!!YEM: Copyright 1995, estate of Helmut Schaffrath.
**kern	**text
*ICvox	*
*M2/4	*
*k[f#]	*
*G:	*
=1	=1
!LO:TX:a:t=Munter.	!
{4g	1._Auf,
8.g	munt're
16g	.
=2	=2
(8bL	Brü-
8gJ)	.
8g	-der,
8b/}	die
=3	=3
{4dd/	Glä-
8.a	-ſer
16a	ʒur
=4	=4
4b/	Hand!
4r}	.
=5	=5
{4a	Sin-
8.b/	-get
16cc#/	der
=6	=6
4dd/	Freundſchaft
8f#	.
8f#}	ge-
=7	=7
{(8aL	-hei-
8gJ)	.
8e	-lig-
8f#	-tes
=8	=8
4d	Band.
4r}	.
=9	=9
{4a	ſin-
8.d	-get
16d	der
=10	=10
4b/	Lie-
8g	-be
8g}	be-
=11	=11
{4cc/	-glück-
8.b/	-ten
16b/	Ver-
=12	=12
4a	-ein,
4r}	.
=13	=13
{4b	ſchlür-
8cc/	-et
8dd/	die
=14	=14
4ee/	blin-
8cc/	-ken-
8a}	-den
=15	=15
{4b/	Glä-
8.a	-ſer
16a	hi-
=16	=16
4g	-nei
4r}	.
=17	=17
{4a	ſin-
8.d	-get
16d	der
=18	=18
4b/	Lie-
8g	-be
8g}	be-
=19	=19
{4cc/	-glück-
8.b/	-ten
16b/	Ver-
=20	=20
4a	-ein,
4r}	.
=21	=21
{4b/	ſchlür-
8cc/	-et
8dd/	die
=22	=22
4ee/	blin-
8cc/	-ken-
8a}	-den
=23	=23
{4b/	Glä-
8.a	-ſer
16a	hi-
=24	=24
4g	-nei
4r}	.
==	==
!!!AGN: Geselligkeits -, Trink -, Moral - Lied
!!!ONB: ESAC (Essen Associative Code) Database: FINK
!!!AMT: simple duple
!!!AIN: vox
!!!EED: Helmut Schaffrath
!!!EEV: 1.0
!!!GTL: Liedertafel- und Gesellschaftslieder.
!!!source: Musikalischer Hausschatz der Deutschen. Eine Sammlung von über 1000 Liedern und Gesängen mit Singstimmen und Klavierbegleitung. Leipzig, Litterarisches Verlags-Haus.
!!!page: 564
!!!ENC: Anna Maria Matuszewska
!!!EEV: 2025/03/19
*-	*-
